X: 7
T: C\'uil Aodha, The
I: Cuil Aodha, The	J-53	A	jig
M: 6/8
R: jig
K: A
"A"aec dBG| A3 "E7"c2d| "A"edc dBA| "E7"GEE dcB|
"A"A3 AGA| "E7"BAB gab| "D"age "E7"dBe| "A"ABA Ace:|
|:"F#m"a2a aga| "E7"bef gab| "A"age "D"d2e| "B7"dBA "E7"GAB|
"A"a2a aga| "E7"bef gab| "D"age "Bm"dBe| "E7"A3 "A"Ace:|
%%text Roaring Jelly  J-53

